X:326
T:My Darling Boy is Gone
B:Joyce, P. W.; "Old Irish Folk Music and Songs"
R:song air
A:Antrim/Tyrone
O:Irish
H:A favourite around Ballymoney and in some parts of Tyrone.  A despairing
H:love song was sung to it.
L:1/8
M:C
K:F
"Slow."\
D|D2 FG AdAF|G>FDD D3 A|d2 fd d2 AF|G2 AD F3 c|
d2 fd d>c AF|GF GA {=B}c2 AF|D>EFG Ad AF|G>FDD D3||

